styles/2/Numix/64/actions/green-add-folders-to-archive.svg

<?xml version="1.0" encoding="UTF-8" standalone="no"?>
<svg
   xmlns:dc="http://purl.org/dc/elements/1.1/"
   xmlns:cc="http://creativecommons.org/ns#"
   xmlns:rdf="http://www.w3.org/1999/02/22-rdf-syntax-ns#"
   xmlns:svg="http://www.w3.org/2000/svg"
   xmlns="http://www.w3.org/2000/svg"
   xmlns:sodipodi="http://sodipodi.sourceforge.net/DTD/sodipodi-0.dtd"
   xmlns:inkscape="http://www.inkscape.org/namespaces/inkscape"
   width="64"
   height="64"
   viewBox="0 0 64 64"
   id="svg2"
   version="1.1"
   inkscape:version="0.91 r"
   sodipodi:docname="green-add-folders-to-archive.svg">
  <metadata
     id="metadata20">
    <rdf:RDF>
      <cc:Work
         rdf:about="">
        <dc:format>image/svg+xml</dc:format>
        <dc:type
           rdf:resource="http://purl.org/dc/dcmitype/StillImage" />
      </cc:Work>
    </rdf:RDF>
  </metadata>
  <defs
     id="defs18" />
  <sodipodi:namedview
     pagecolor="#ffffff"
     bordercolor="#666666"
     borderopacity="1"
     objecttolerance="10"
     gridtolerance="10"
     guidetolerance="10"
     inkscape:pageopacity="0"
     inkscape:pageshadow="2"
     inkscape:window-width="1280"
     inkscape:window-height="969"
     id="namedview16"
     showgrid="true"
     inkscape:zoom="7.375"
     inkscape:cx="52.408695"
     inkscape:cy="31.308241"
     inkscape:window-x="0"
     inkscape:window-y="0"
     inkscape:window-maximized="1"
     inkscape:current-layer="svg2">
    <inkscape:grid
       type="xygrid"
       id="grid3006" />
  </sodipodi:namedview>
  <path
     style="fill:#66bb6a;fill-opacity:1;stroke:none"
     d="m 9,24 c -1.463916,0 -3,1.526601 -3,3 l -1,0 -2,0 c -1.470099,0 -3,1.49533 -3,3 l 0,31 c 0,2 1,3 3,3 l 50,0 c 1.567614,0 3,-1.358342 3,-3 l 0,-27 c 0,-1.504928 -1.455038,-3 -3,-3 l -3,0 0,-4 c 0,-1.461156 -1.453219,-3 -3,-3 z"
     id="path6-9-7"
     inkscape:connector-curvature="0"
     sodipodi:nodetypes="scccssssscccsss" />
  <path
     inkscape:connector-curvature="0"
     style="fill:#000000;fill-opacity:0.32156863;stroke:none"
     d="m 9,24 c -1.463916,0 -3,1.559322 -3,3 l -1,0 -2,0 c -1.470099,0 -3,1.49533 -3,3 l 0,31 c 0,2 1,3 3,3 l 50,0 c 1.567614,0 3,-1.358342 3,-3 l 0,-27 c 0,-1.504928 -1.455038,-3 -3,-3 l -3,0 0,-4 c 0,-1.461156 -1.453219,-3 -3,-3 z m -6,5 29,0 c 0.590175,0 1.022196,0.515278 1,1 l 0,3 20,0 c 0.505551,0 1,0.508742 1,1 l 0,27 c 0,0.521292 -0.478766,1 -1,1 L 3,62 C 2.535705,62 2,61.603654 2,61 L 2,30 c 0,-0.492405 0.516529,-1 1,-1 z"
     id="path3778-4"
     sodipodi:nodetypes="sccsssssssscsssssscssssssss" />
  <path
     style="fill:#000000;fill-opacity:0.10196079;stroke:none"
     d="M 9 24 C 7.536084 24 6 25.526601 6 27 L 5 27 L 3 27 C 1.529901 27 0 28.49533 0 30 L 0 61 C 0 63 1 64 3 64 L 53 64 C 54.567614 64 56 62.641658 56 61 L 56 34 C 56 32.495072 54.544962 31 53 31 L 50 31 L 50 27 C 50 25.538844 48.546781 24 47 24 L 9 24 z "
     id="path3029" />
  <path
     style="fill:#66bb6a;fill-opacity:1;stroke:none"
     d="M 17,0 C 15.536084,0 14,1.5266005 14,3 L 13,3 11,3 C 9.529901,3 8,4.49533 8,6 l 0,31 c 0,2 1,3 3,3 l 50,0 c 1.567614,0 3,-1.358342 3,-3 L 64,10 C 64,8.495072 62.544962,7.0000002 61,7.0000002 l -3,0 L 58,3 C 58,1.5388438 56.546781,0 55,0 z"
     id="path6-9"
     inkscape:connector-curvature="0"
     sodipodi:nodetypes="scccssssscccsss" />
  <path
     inkscape:connector-curvature="0"
     style="fill:#000000;fill-opacity:0.32156863;stroke:none"
     d="M 17,0 C 15.536084,0 14,1.559322 14,3 L 13,3 11,3 C 9.529901,3 8,4.49533 8,6 l 0,31 c 0,2 1,3 3,3 l 50,0 c 1.567614,0 3,-1.358342 3,-3 L 64,10 C 64,8.495072 62.544962,7.0000002 61,7.0000002 l -3,0 L 58,3 C 58,1.5388438 56.546781,0 55,0 z m -6,5 29,0 c 0.590175,0 1.022196,0.5152779 1,1 l 0,3 20,0 c 0.505551,0 1,0.508742 1,1 l 0,27 c 0,0.521292 -0.478766,1 -1,1 l -50,0 c -0.464295,0 -1,-0.396346 -1,-1 L 10,6 c 0,-0.492405 0.516529,-1 1,-1 z"
     id="path3778"
     sodipodi:nodetypes="sccsssssssscsssssscssssssss" />
  <path
     style="fill:#859900"
     d="M 64 40 L 52 40 L 52 28 L 40 28 L 40 40 L 28 40 L 28 52 L 40 52 L 40 64 L 52 64 L 52 52 L 64 52 Z "
     id="path14" />
</svg>

<svg xmlns="http://www.w3.org/2000/svg" viewBox="0 0 64 64">
 <path d="m 9 24 c -1.464 0 -3 1.527 -3 3 l -1 0 -2 0 c -1.47 0 -3 1.495 -3 3 l 0 31 c 0 2 1 3 3 3 l 50 0 c 1.568 0 3 -1.358 3 -3 l 0 -27 c 0 -1.505 -1.455 -3 -3 -3 l -3 0 0 -4 c 0 -1.461 -1.453 -3 -3 -3 z" style="fill:#66bb6a;fill-opacity:1;stroke:none"/>
 <path d="m 9 24 c -1.464 0 -3 1.559 -3 3 l -1 0 -2 0 c -1.47 0 -3 1.495 -3 3 l 0 31 c 0 2 1 3 3 3 l 50 0 c 1.568 0 3 -1.358 3 -3 l 0 -27 c 0 -1.505 -1.455 -3 -3 -3 l -3 0 0 -4 c 0 -1.461 -1.453 -3 -3 -3 z m -6 5 29 0 c 0.59 0 1.022 0.515 1 1 l 0 3 20 0 c 0.506 0 1 0.509 1 1 l 0 27 c 0 0.521 -0.479 1 -1 1 l -50 0 c -0.464 0 -1 -0.396 -1 -1 l 0 -31 c 0 -0.492 0.517 -1 1 -1 z" style="fill:#000;fill-opacity:0.322;stroke:none"/>
 <path d="m 9 24 c -1.464 0 -3 1.527 -3 3 l -1 0 l -2 0 c -1.47 0 -3 1.495 -3 3 l 0 31 c 0 2 1 3 3 3 l 50 0 c 1.568 0 3 -1.358 3 -3 l 0 -27 c 0 -1.505 -1.455 -3 -3 -3 l -3 0 l 0 -4 c 0 -1.461 -1.453 -3 -3 -3 l -38 0 z" style="fill:#000;fill-opacity:0.102;stroke:none"/>
 <path d="m 17 0 c -1.464 0 -3 1.527 -3 3 l -1 0 -2 0 c -1.47 0 -3 1.495 -3 3 l 0 31 c 0 2 1 3 3 3 l 50 0 c 1.568 0 3 -1.358 3 -3 l 0 -27 c 0 -1.505 -1.455 -3 -3 -3 l -3 0 l 0 -4 c 0 -1.461 -1.453 -3 -3 -3 z" style="fill:#66bb6a;fill-opacity:1;stroke:none"/>
 <path d="m 17 0 c -1.464 0 -3 1.559 -3 3 l -1 0 -2 0 c -1.47 0 -3 1.495 -3 3 l 0 31 c 0 2 1 3 3 3 l 50 0 c 1.568 0 3 -1.358 3 -3 l 0 -27 c 0 -1.505 -1.455 -3 -3 -3 l -3 0 l 0 -4 c 0 -1.461 -1.453 -3 -3 -3 z m -6 5 29 0 c 0.59 0 1.022 0.515 1 1 l 0 3 20 0 c 0.506 0 1 0.509 1 1 l 0 27 c 0 0.521 -0.479 1 -1 1 l -50 0 c -0.464 0 -1 -0.396 -1 -1 l 0 -31 c 0 -0.492 0.517 -1 1 -1 z" style="fill:#000;fill-opacity:0.322;stroke:none"/>
 <path d="m 64 40 l -12 0 l 0 -12 l -12 0 l 0 12 l -12 0 l 0 12 l 12 0 l 0 12 l 12 0 l 0 -12 l 12 0 Z" style="fill:#859900"/>
</svg>
